X:179
T:Lord Bath's Gate
M: C|
L:1/8
B:Thompson's Compleat Collection of 200 Favourite Country Dances, vol. 3 (London, 1773)
Z:Transcribed and edited by Flynn Titford-Mock, 2007
Z:abc's:AK/Fiddler's Companion
K:D
dDAD BDEAD | dDAD GDFD | dAfA eAaA | fdcB A2 A,2::ez fz gz ez | (f/g/a) aa a4 |
ez fz gz ez | fdec d4::dfad ee f2 | dfad ee f2 | g g2f b b2a | gefc d2 D2 :|

